X:18023
T:Unnamed Reel
S:unknown, photocopy from John Wilson
M:C
I:speed 300
K:G
|:D | G2ge d2 ed | B2ge dBAB | G2ge d2ed | BGAG EG G:|
|: z | Beed e3g | fgaf gfed | Beed e3g | fgaf g3:|
